X:120
T:Marion's Ramble
T:Tune
M:6/8
L:1/8
K:A
P:A
"A"Ace aec|"D"def "A"ecA|"A"Ace "F#m"aec|"Bm"dec "E"B2e|\
"A"Ace aec|"D"def "A"ecA|"A"aaa aec|"E"dcB "A"A3:|
P:B
|:"E"BBB B2c|"E"dcB "A"cBA|"E"BBB B2c|"E"dcB "A"c2A|\
"E"BBB B2c|"E"dcB "A"cBA|"A"aaa aec|"E"dcB "A"A3:|
T:Harmony
P:A
"A"A2B cBA|"D"d2B "A"c2B|"A"A2B "F#m"cBA|"Bm"G2A "E"BGE|
"A"A2B cBA|"D"d2B "A"c2B|"A"AAA ABc|1 "E"BAG "A"A3:|2 "E"BAG "A"AGF||
P:B
|:"E"EEE Ez2|"E"z3 "A"z3|"E"EEE Ez2|"E"z3 "A"z3|\
"E"EEE Ez2|"E"z3 "A"z3|"E"AAA ABc|1 "E"BAG "A"AGF:|2 "E"BAG "A"A3||



%%newpage
%%textfont * 20
%%text J3 (1.0) p2
%%textfont * 12


